X:113
T: EINST SASS ICH IN DER LAUBE
N: E0708A
O: Europa, Mitteleuropa, Deutschland, Hessen, Ober - Lahnkreis; Hanau
R: Liebes - Lied, Leid, Klage
M: 2/4
L: 1/8
K: F
C | FAAc | c2d
c | cBBA | G2z
F | EGAB | d2c
B | BAAc | c2z
C | FAcf | f2e
d | cABc | A2z

